X: 5
T: The Killarney Boys Of Pleasure
R: reel
M: 4/4
L: 1/8
K: Emin
E>FDE FA B2 | AFDE FA B2 | defe d B3 | dAFD DEF<D :|
EFEB, B2 dA | FDEF ABAB | defe d B3 | AF F3 EE D ||
B2 e<B B2 e<B | dBAF DEFA | f>fef gfed | BAFD DEF<A |
B2 e<B B2 e<B | dBAF DEFA | f>fef gfed | BAFF EED2 :|


Tune 733	Setting 733

